X: 155
T: Lady Abbintons Allemand
%R: reel
B: Chas & Sam Thompson "Twenty Four Country Dances for the Year 1782", London 1782, p.78 #1
F: http://www.vwml.org/browse/browse-collections-dance-tune-books/browse-thompsons1782
Z: 2014 John Chambers <jc:trillian.mit.edu> (added dance description)
M: 2/4
L: 1/16
K: D
% - - - - - - - - - - - - - - - - - - - - - - - - - - - - -
|:\
d4 e2f2 | g2fg e4 | {d}c2BA B2c2 | d2df A4 |\
d4 e2f2 | g2fg e4 | {d}c2BA B2c2 | d4- d4 :|
|:\
a2f2 fgaf | g2e2 e4 | f2ef g2f2 | edcB A4 |\
a2f2 fgaf | g2e2 e4 | {d}c2BA B2c2 | d4- d4 :|
% - - - - - - - - - - Dance description - - - - - - - - - -
%%begintext align
%% The 1st & 2d Cu: set and change sides, set
%% and back again .|. Hands across and back
%% again :|. lead down the middle up again &
%% cast of .|: then Allemand with your right
%% hand then left :|:
%%endtext

%%sep 1 1 500
%%sep 1 1 500
